packages/dnb-ui-lib/assets/icons/savings_account_in.svg

<svg width="16" height="16" viewBox="0 0 16 16" fill="none" xmlns="http://www.w3.org/2000/svg">
<path d="M1 9.55556H5.66667M4.11111 11.1111L5.66667 9.55556M5.66667 9.55556L4.11111 8M4.66263 14.5469C4.74631 14.8166 4.99163 15 5.2694 15H6.71172C7.01622 15 7.27808 14.7806 7.33631 14.4763L7.40949 13.6575C7.46804 13.3532 7.7299 13.1335 8.03408 13.1335H9.12894C9.43344 13.1335 9.69531 13.3532 9.75354 13.6575L9.86172 14.4763C9.92026 14.7806 10.1821 15 10.4863 15H11.9808C12.2439 15 12.48 14.835 12.5745 14.5852L13.3776 11.9437C13.4082 11.8639 13.4549 11.7913 13.5135 11.7298C14.3471 10.8512 14.8444 9.79407 14.8444 8.58333C14.8444 5.71755 12.2363 3.33333 8.79899 3.33333C7.56953 3.33333 6.24526 3.63083 5.2799 4.14384C4.9019 3.95264 4.46885 3.84375 4.01322 3.84375C3.68994 3.84375 3.36922 3.9037 3.07204 4.00838C2.71504 4.13412 2.54354 4.54796 2.70326 4.89667L3.02399 5.59731M7.84444 1.93333C7.84444 1.41782 8.26227 1 8.77778 1C9.29329 1 9.71111 1.41782 9.71111 1.93333M6.91111 6H10.1778" stroke="black" stroke-width="1.5" stroke-linecap="round" stroke-linejoin="round"/>
</svg>

<svg width="16" height="16" viewBox="0 0 16 16" fill="none" xmlns="http://www.w3.org/2000/svg"><path d="M1 9.556h4.667M4.11 11.11l1.556-1.555m0 0L4.11 8m.552 6.547c.083.27.329.453.606.453h1.443a.64.64 0 00.624-.524l.073-.819a.64.64 0 01.625-.524H9.13a.64.64 0 01.625.525l.108.818a.64.64 0 00.624.524h1.495a.638.638 0 00.594-.415l.803-2.641a.646.646 0 01.136-.214c.833-.879 1.33-1.936 1.33-3.147 0-2.865-2.608-5.25-6.045-5.25-1.23 0-2.554.298-3.52.81a2.807 2.807 0 00-2.207-.135.653.653 0 00-.369.889l.321.7m4.82-3.664a.933.933 0 111.867 0M6.911 6h3.267" stroke="#000" stroke-width="1.5" stroke-linecap="round" stroke-linejoin="round"/></svg>
